Newaita-dark/.places-aqua/16/folder-google-drive.svg

<svg xmlns="http://www.w3.org/2000/svg" xmlns:xlink="http://www.w3.org/1999/xlink" width="16px" height="16px" viewBox="0 0 16 16" version="1.1">
<defs>
<linearGradient id="linear0" gradientUnits="userSpaceOnUse" x1="254" y1="233.5" x2="254" y2="254.667007" gradientTransform="matrix(0.0312525,0,0,0.0312525,0,6.7195)">
<stop offset="0" style="stop-color:rgb(0%,0%,0%);stop-opacity:0.275;"/>
<stop offset="1" style="stop-color:rgb(0%,0%,0%);stop-opacity:0;"/>
</linearGradient>
<radialGradient id="radial0" gradientUnits="userSpaceOnUse" cx="450.908997" cy="189.578995" fx="450.908997" fy="189.578995" r="21.167" gradientTransform="matrix(0,-0.039065,-0.07032,0,27.057501,31.797501)">
<stop offset="0" style="stop-color:rgb(0%,0%,0%);stop-opacity:0.314;"/>
<stop offset="0.222" style="stop-color:rgb(0%,0%,0%);stop-opacity:0.275;"/>
<stop offset="1" style="stop-color:rgb(0%,0%,0%);stop-opacity:0;"/>
</radialGradient>
<radialGradient id="radial1" gradientUnits="userSpaceOnUse" cx="450.908997" cy="189.578995" fx="450.908997" fy="189.578995" r="21.167" gradientTransform="matrix(0,0.039065,0.07032,0,-11.181,-3.76375)">
<stop offset="0" style="stop-color:rgb(0%,0%,0%);stop-opacity:0.314;"/>
<stop offset="0.222" style="stop-color:rgb(0%,0%,0%);stop-opacity:0.275;"/>
<stop offset="1" style="stop-color:rgb(0%,0%,0%);stop-opacity:0;"/>
</radialGradient>
<radialGradient id="radial2" gradientUnits="userSpaceOnUse" cx="450.908997" cy="189.578995" fx="450.908997" fy="189.578995" r="21.167" gradientTransform="matrix(0,-0.039065,0.07032,0,-11.181,31.797501)">
<stop offset="0" style="stop-color:rgb(0%,0%,0%);stop-opacity:0.314;"/>
<stop offset="0.222" style="stop-color:rgb(0%,0%,0%);stop-opacity:0.275;"/>
<stop offset="1" style="stop-color:rgb(0%,0%,0%);stop-opacity:0;"/>
</radialGradient>
<radialGradient id="radial3" gradientUnits="userSpaceOnUse" cx="450.908997" cy="189.578995" fx="450.908997" fy="189.578995" r="21.167" gradientTransform="matrix(0,0.039065,-0.07032,0,27.057501,-3.76375)">
<stop offset="0" style="stop-color:rgb(0%,0%,0%);stop-opacity:0.314;"/>
<stop offset="0.222" style="stop-color:rgb(0%,0%,0%);stop-opacity:0.275;"/>
<stop offset="1" style="stop-color:rgb(0%,0%,0%);stop-opacity:0;"/>
</radialGradient>
<linearGradient id="linear1" gradientUnits="userSpaceOnUse" x1="254" y1="-147.5" x2="254" y2="-31.083" gradientTransform="matrix(0.0312525,0,0,0.0312525,0,6.7195)">
<stop offset="0" style="stop-color:rgb(64.313728%,64.313728%,64.313728%);stop-opacity:0;"/>
<stop offset="1" style="stop-color:rgb(100%,100%,100%);stop-opacity:0.196;"/>
</linearGradient>
<linearGradient id="linear2" gradientUnits="userSpaceOnUse" x1="254" y1="233.5" x2="254" y2="-105.167" gradientTransform="matrix(0.0312525,0,0,0.0312525,0,6.7195)">
<stop offset="0" style="stop-color:rgb(34.509805%,34.509805%,34.509805%);stop-opacity:0;"/>
<stop offset="1" style="stop-color:rgb(98.039216%,98.039216%,98.039216%);stop-opacity:0.196;"/>
</linearGradient>
<linearGradient id="linear3" gradientUnits="userSpaceOnUse" x1="254" y1="-147.5" x2="254" y2="233.5" gradientTransform="matrix(0.0312525,0,0,0.0312525,0,7.066)">
<stop offset="0" style="stop-color:rgb(64.313728%,64.313728%,64.313728%);stop-opacity:0;"/>
<stop offset="1" style="stop-color:rgb(100%,100%,100%);stop-opacity:0.196;"/>
</linearGradient>
</defs>
<g id="surface1">
<path style=" stroke:none;fill-rule:nonzero;fill:url(#linear0);" d="M 1.984375 14.015625 L 13.890625 14.015625 L 13.890625 14.679688 L 1.984375 14.679688 Z M 1.984375 14.015625 "/>
<path style=" stroke:none;fill-rule:nonzero;fill:url(#radial0);" d="M 13.890625 14.015625 L 15.214844 14.015625 L 15.214844 13.355469 L 13.890625 13.355469 Z M 13.890625 14.015625 "/>
<path style=" stroke:none;fill-rule:nonzero;fill:url(#radial1);" d="M 1.984375 14.015625 L 0.660156 14.015625 L 0.660156 14.679688 L 1.984375 14.679688 Z M 1.984375 14.015625 "/>
<path style=" stroke:none;fill-rule:nonzero;fill:url(#radial2);" d="M 1.984375 14.015625 L 0.660156 14.015625 L 0.660156 13.355469 L 1.984375 13.355469 Z M 1.984375 14.015625 "/>
<path style=" stroke:none;fill-rule:nonzero;fill:url(#radial3);" d="M 13.890625 14.015625 L 15.214844 14.015625 L 15.214844 14.679688 L 13.890625 14.679688 Z M 13.890625 14.015625 "/>
<path style=" stroke:none;fill-rule:nonzero;fill:rgb(39.215687%,70.980394%,96.470588%);fill-opacity:1;" d="M 3.640625 2.109375 L 14.386719 2.109375 C 14.5625 2.109375 14.730469 2.179688 14.855469 2.304688 C 14.980469 2.425781 15.050781 2.597656 15.050781 2.773438 L 15.050781 5.253906 C 15.050781 5.617188 14.753906 5.914062 14.386719 5.914062 L 3.640625 5.914062 C 3.273438 5.914062 2.976562 5.617188 2.976562 5.253906 L 2.976562 2.773438 C 2.976562 2.40625 3.273438 2.109375 3.640625 2.109375 Z M 3.640625 2.109375 "/>
<path style=" stroke:none;fill-rule:nonzero;fill:url(#linear1);" d="M 3.640625 2.109375 L 14.386719 2.109375 C 14.5625 2.109375 14.730469 2.179688 14.855469 2.304688 C 14.980469 2.425781 15.050781 2.597656 15.050781 2.773438 L 15.050781 5.253906 C 15.050781 5.617188 14.753906 5.914062 14.386719 5.914062 L 3.640625 5.914062 C 3.273438 5.914062 2.976562 5.617188 2.976562 5.253906 L 2.976562 2.773438 C 2.976562 2.40625 3.273438 2.109375 3.640625 2.109375 Z M 3.640625 2.109375 "/>
<path style=" stroke:none;fill-rule:nonzero;fill:rgb(90.196079%,90.196079%,90.196079%);fill-opacity:0.588;" d="M 3.640625 2.109375 C 3.464844 2.109375 3.292969 2.179688 3.167969 2.300781 C 3.046875 2.425781 2.976562 2.597656 2.976562 2.773438 L 2.976562 2.851562 C 2.976562 2.679688 3.046875 2.507812 3.171875 2.386719 C 3.292969 2.261719 3.464844 2.191406 3.640625 2.191406 L 14.386719 2.191406 C 14.5625 2.191406 14.730469 2.261719 14.855469 2.386719 C 14.980469 2.507812 15.050781 2.679688 15.050781 2.851562 L 15.050781 2.773438 C 15.050781 2.597656 14.980469 2.425781 14.855469 2.300781 C 14.730469 2.179688 14.5625 2.109375 14.386719 2.109375 Z M 3.640625 2.109375 "/>
<path style=" stroke:none;fill-rule:nonzero;fill:rgb(12.941177%,12.941177%,12.941177%);fill-opacity:1;" d="M 3.640625 2.0625 C 3.246094 2.0625 2.929688 2.378906 2.929688 2.773438 L 2.929688 5.253906 C 2.929688 5.441406 3.003906 5.621094 3.136719 5.753906 C 3.269531 5.886719 3.449219 5.960938 3.640625 5.960938 L 14.386719 5.960938 C 14.574219 5.960938 14.753906 5.886719 14.890625 5.753906 C 15.023438 5.621094 15.097656 5.441406 15.097656 5.253906 L 15.097656 2.773438 C 15.097656 2.378906 14.777344 2.0625 14.386719 2.0625 Z M 3.640625 2.15625 L 14.386719 2.15625 C 14.550781 2.15625 14.707031 2.21875 14.824219 2.335938 C 14.9375 2.449219 15.003906 2.609375 15.003906 2.769531 L 15.003906 5.253906 C 15.003906 5.414062 14.9375 5.570312 14.824219 5.6875 C 14.707031 5.800781 14.550781 5.867188 14.386719 5.867188 L 3.640625 5.867188 C 3.476562 5.867188 3.320312 5.800781 3.203125 5.6875 C 3.085938 5.570312 3.023438 5.414062 3.023438 5.253906 L 3.023438 2.773438 C 3.023438 2.609375 3.085938 2.453125 3.203125 2.335938 C 3.316406 2.21875 3.476562 2.15625 3.636719 2.15625 Z M 3.640625 2.15625 "/>
<path style=" stroke:none;fill-rule:nonzero;fill:rgb(73.333335%,87.058824%,98.431373%);fill-opacity:1;" d="M 1.324219 3.433594 C 1.148438 3.433594 0.980469 3.5 0.855469 3.625 C 0.730469 3.75 0.660156 3.917969 0.660156 4.09375 L 0.660156 13.355469 C 0.660156 13.53125 0.730469 13.699219 0.855469 13.824219 C 0.980469 13.949219 1.148438 14.015625 1.324219 14.015625 L 14.554688 14.015625 C 14.730469 14.015625 14.898438 13.949219 15.023438 13.824219 C 15.144531 13.699219 15.214844 13.53125 15.214844 13.355469 L 15.214844 5.085938 L 6.285156 5.085938 C 6.109375 5.085938 5.941406 5.015625 5.816406 4.894531 C 5.691406 4.769531 5.621094 4.601562 5.621094 4.425781 L 5.621094 3.433594 Z M 1.324219 3.433594 "/>
<path style=" stroke:none;fill-rule:nonzero;fill:url(#linear2);" d="M 1.324219 3.433594 C 1.148438 3.433594 0.980469 3.5 0.855469 3.625 C 0.730469 3.75 0.660156 3.917969 0.660156 4.09375 L 0.660156 13.355469 C 0.660156 13.53125 0.730469 13.699219 0.855469 13.824219 C 0.980469 13.949219 1.148438 14.015625 1.324219 14.015625 L 14.554688 14.015625 C 14.730469 14.015625 14.898438 13.949219 15.023438 13.824219 C 15.144531 13.699219 15.214844 13.53125 15.214844 13.355469 L 15.214844 5.085938 L 6.285156 5.085938 C 6.109375 5.085938 5.941406 5.015625 5.816406 4.894531 C 5.691406 4.769531 5.621094 4.601562 5.621094 4.425781 L 5.621094 3.433594 Z M 1.324219 3.433594 "/>
<path style=" stroke:none;fill-rule:nonzero;fill:rgb(0%,0%,0%);fill-opacity:0.196;" d="M 1.324219 14.015625 C 1.148438 14.015625 0.980469 13.949219 0.855469 13.824219 C 0.730469 13.699219 0.660156 13.53125 0.660156 13.355469 L 0.660156 13.273438 C 0.660156 13.449219 0.730469 13.617188 0.855469 13.742188 C 0.980469 13.863281 1.148438 13.933594 1.324219 13.933594 L 14.554688 13.933594 C 14.730469 13.933594 14.898438 13.863281 15.023438 13.742188 C 15.144531 13.617188 15.214844 13.449219 15.214844 13.273438 L 15.214844 13.355469 C 15.214844 13.53125 15.144531 13.699219 15.023438 13.824219 C 14.898438 13.949219 14.730469 14.015625 14.554688 14.015625 Z M 1.324219 14.015625 "/>
<path style=" stroke:none;fill-rule:nonzero;fill:rgb(90.196079%,90.196079%,90.196079%);fill-opacity:0.937;" d="M 1.324219 3.433594 C 1.148438 3.433594 0.980469 3.5 0.855469 3.625 C 0.730469 3.75 0.660156 3.917969 0.660156 4.09375 L 0.660156 4.175781 C 0.660156 4 0.730469 3.832031 0.855469 3.707031 C 0.980469 3.585938 1.148438 3.515625 1.324219 3.515625 L 5.625 3.515625 L 5.625 3.433594 Z M 6.242188 5.128906 C 6.066406 5.128906 5.898438 5.058594 5.773438 4.933594 C 5.652344 4.808594 5.582031 4.640625 5.582031 4.464844 L 5.582031 4.382812 C 5.582031 4.558594 5.652344 4.726562 5.773438 4.851562 C 5.898438 4.976562 6.066406 5.046875 6.242188 5.046875 L 15.214844 5.046875 L 15.214844 5.128906 Z M 6.242188 5.128906 "/>
<path style=" stroke:none;fill-rule:nonzero;fill:rgb(12.941177%,12.941177%,12.941177%);fill-opacity:1;" d="M 1.324219 3.386719 C 1.136719 3.386719 0.953125 3.460938 0.820312 3.59375 C 0.6875 3.726562 0.613281 3.90625 0.613281 4.09375 L 0.613281 13.355469 C 0.613281 13.542969 0.6875 13.722656 0.820312 13.855469 C 0.953125 13.988281 1.136719 14.0625 1.324219 14.0625 L 14.554688 14.0625 C 14.742188 14.0625 14.921875 13.988281 15.054688 13.855469 C 15.1875 13.722656 15.261719 13.542969 15.261719 13.355469 L 15.261719 4.992188 L 6.285156 4.992188 C 6.121094 4.992188 5.964844 4.929688 5.847656 4.8125 C 5.734375 4.699219 5.667969 4.542969 5.671875 4.378906 L 5.671875 3.386719 Z M 1.324219 3.480469 L 5.578125 3.480469 L 5.578125 4.378906 C 5.574219 4.566406 5.652344 4.746094 5.785156 4.878906 C 5.917969 5.011719 6.097656 5.085938 6.285156 5.085938 L 15.167969 5.085938 L 15.167969 13.355469 C 15.167969 13.519531 15.105469 13.675781 14.988281 13.789062 C 14.875 13.90625 14.71875 13.96875 14.554688 13.96875 L 1.324219 13.96875 C 1.160156 13.96875 1.003906 13.90625 0.886719 13.789062 C 0.773438 13.675781 0.707031 13.519531 0.707031 13.355469 L 0.707031 4.09375 C 0.707031 3.929688 0.773438 3.773438 0.886719 3.660156 C 1.003906 3.542969 1.160156 3.480469 1.324219 3.480469 Z M 1.324219 3.480469 "/>
<path style=" stroke:none;fill-rule:nonzero;fill:rgb(39.215687%,70.980394%,96.470588%);fill-opacity:1;" d="M 7.09375 6.738281 L 8.75 9.699219 L 10.570312 9.699219 L 8.804688 6.738281 Z M 6.929688 7.070312 L 5.273438 10.042969 L 6.15625 11.363281 L 7.820312 8.722656 Z M 7.425781 10.023438 L 6.597656 11.363281 L 9.6875 11.363281 L 10.570312 10.023438 Z M 7.425781 10.023438 "/>
<path style=" stroke:none;fill-rule:nonzero;fill:url(#linear3);" d="M 7.09375 6.738281 L 8.75 9.699219 L 10.570312 9.699219 L 8.804688 6.738281 Z M 6.929688 7.070312 L 5.273438 10.042969 L 6.15625 11.363281 L 7.820312 8.722656 Z M 7.425781 10.023438 L 6.597656 11.363281 L 9.6875 11.363281 L 10.570312 10.023438 Z M 7.425781 10.023438 "/>
<path style=" stroke:none;fill-rule:nonzero;fill:rgb(12.941177%,12.941177%,12.941177%);fill-opacity:1;" d="M 7.015625 6.691406 L 7.054688 6.761719 L 8.722656 9.746094 L 10.652344 9.746094 L 8.832031 6.695312 Z M 7.171875 6.785156 L 8.777344 6.785156 L 10.488281 9.652344 L 8.777344 9.652344 Z M 6.929688 6.972656 L 6.886719 7.046875 L 5.21875 10.046875 L 6.15625 11.449219 L 7.878906 8.722656 Z M 6.929688 7.167969 L 7.769531 8.71875 L 6.15625 11.277344 L 5.328125 10.039062 Z M 7.398438 9.976562 L 7.386719 9.996094 L 6.515625 11.410156 L 9.714844 11.410156 L 10.660156 9.976562 Z M 7.453125 10.070312 L 10.484375 10.070312 L 9.664062 11.316406 L 6.683594 11.316406 Z M 7.453125 10.070312 "/>
</g>
</svg>

<svg xmlns="http://www.w3.org/2000/svg" width="16pt" height="16pt" viewBox="0 0 16 16"><defs><linearGradient id="a" gradientUnits="userSpaceOnUse" x1="254" y1="233.5" x2="254" y2="254.667" gradientTransform="matrix(.03125 0 0 .03125 0 6.72)"><stop offset="0" stop-opacity=".275"/><stop offset="1" stop-opacity="0"/></linearGradient><radialGradient id="b" gradientUnits="userSpaceOnUse" cx="450.909" cy="189.579" fx="450.909" fy="189.579" r="21.167" gradientTransform="matrix(0 -.03907 -.07032 0 27.058 31.798)"><stop offset="0" stop-opacity=".314"/><stop offset=".222" stop-opacity=".275"/><stop offset="1" stop-opacity="0"/></radialGradient><radialGradient id="c" gradientUnits="userSpaceOnUse" cx="450.909" cy="189.579" fx="450.909" fy="189.579" r="21.167" gradientTransform="matrix(0 .03907 .07032 0 -11.181 -3.764)"><stop offset="0" stop-opacity=".314"/><stop offset=".222" stop-opacity=".275"/><stop offset="1" stop-opacity="0"/></radialGradient><radialGradient id="d" gradientUnits="userSpaceOnUse" cx="450.909" cy="189.579" fx="450.909" fy="189.579" r="21.167" gradientTransform="matrix(0 -.03907 .07032 0 -11.181 31.798)"><stop offset="0" stop-opacity=".314"/><stop offset=".222" stop-opacity=".275"/><stop offset="1" stop-opacity="0"/></radialGradient><radialGradient id="e" gradientUnits="userSpaceOnUse" cx="450.909" cy="189.579" fx="450.909" fy="189.579" r="21.167" gradientTransform="matrix(0 .03907 -.07032 0 27.058 -3.764)"><stop offset="0" stop-opacity=".314"/><stop offset=".222" stop-opacity=".275"/><stop offset="1" stop-opacity="0"/></radialGradient><linearGradient id="f" gradientUnits="userSpaceOnUse" x1="254" y1="-147.5" x2="254" y2="-31.083" gradientTransform="matrix(.03125 0 0 .03125 0 6.72)"><stop offset="0" stop-color="#a4a4a4" stop-opacity="0"/><stop offset="1" stop-color="#fff" stop-opacity=".196"/></linearGradient><linearGradient id="g" gradientUnits="userSpaceOnUse" x1="254" y1="233.5" x2="254" y2="-105.167" gradientTransform="matrix(.03125 0 0 .03125 0 6.72)"><stop offset="0" stop-color="#585858" stop-opacity="0"/><stop offset="1" stop-color="#fafafa" stop-opacity=".196"/></linearGradient><linearGradient id="h" gradientUnits="userSpaceOnUse" x1="254" y1="-147.5" x2="254" y2="233.5" gradientTransform="matrix(.03125 0 0 .03125 0 7.066)"><stop offset="0" stop-color="#a4a4a4" stop-opacity="0"/><stop offset="1" stop-color="#fff" stop-opacity=".196"/></linearGradient></defs><path d="M1.984 14.016h11.907v.664H1.984zm0 0" fill="url(#a)"/><path d="M13.89 14.016h1.325v-.66H13.89zm0 0" fill="url(#b)"/><path d="M1.984 14.016H.66v.664h1.324zm0 0" fill="url(#c)"/><path d="M1.984 14.016H.66v-.66h1.324zm0 0" fill="url(#d)"/><path d="M13.89 14.016h1.325v.664H13.89zm0 0" fill="url(#e)"/><path d="M3.637 2.11h10.75c.367 0 .664.296.664.66v2.48a.664.664 0 0 1-.664.664H3.637a.663.663 0 0 1-.66-.664V2.77c0-.364.296-.66.66-.66zm0 0" fill="#64b5f6"/><path d="M3.637 2.11h10.75c.367 0 .664.296.664.66v2.48a.664.664 0 0 1-.664.664H3.637a.663.663 0 0 1-.66-.664V2.77c0-.364.296-.66.66-.66zm0 0" fill="url(#f)"/><path d="M3.637 2.11a.662.662 0 0 0-.66.66v.085c0-.367.296-.664.66-.664h10.75c.367 0 .664.297.664.664V2.77a.663.663 0 0 0-.664-.66zm0 0" fill="#e6e6e6" fill-opacity=".588"/><path d="M3.637 2.063a.707.707 0 0 0-.707.707v2.48c0 .395.316.71.707.71h10.75c.394 0 .71-.315.71-.71V2.77a.708.708 0 0 0-.71-.708zm0 .093h10.75c.343 0 .617.274.617.614v2.48a.614.614 0 0 1-.617.617H3.637a.613.613 0 0 1-.614-.617V2.77c0-.34.274-.614.614-.614zm0 0" fill="#212121"/><path d="M1.324 3.434a.66.66 0 0 0-.664.66v9.261c0 .368.297.66.664.66h13.23c.368 0 .66-.292.66-.66v-8.27H6.286a.66.66 0 0 1-.664-.66v-.991zm0 0" fill="#bbdefb"/><path d="M1.324 3.434a.66.66 0 0 0-.664.66v9.261c0 .368.297.66.664.66h13.23c.368 0 .66-.292.66-.66v-8.27H6.286a.66.66 0 0 1-.664-.66v-.991zm0 0" fill="url(#g)"/><path d="M1.324 14.016a.66.66 0 0 1-.664-.66v-.083c0 .368.297.66.664.66h13.23c.368 0 .66-.292.66-.66v.082c0 .368-.292.66-.66.66zm0 0" fill-opacity=".196"/><path d="M1.324 3.434a.66.66 0 0 0-.664.66v.082a.66.66 0 0 1 .664-.66h4.297v-.082zm0 0M6.242 5.129a.66.66 0 0 1-.66-.664v-.082a.66.66 0 0 0 .66.664h8.973v.082zm0 0" fill="#e6e6e6" fill-opacity=".937"/><path d="M1.324 3.387a.708.708 0 0 0-.71.707v9.261c0 .391.316.707.71.707h13.23c.391 0 .708-.316.708-.707V4.992H6.285a.613.613 0 0 1-.617-.613v-.992zm0 .093h4.25v.899c0 .39.32.707.711.707h8.883v8.27c0 .34-.273.613-.613.613H1.325a.613.613 0 0 1-.618-.614V4.094c0-.34.273-.614.617-.614zm0 0" fill="#212121"/><path d="M7.094 6.738L8.75 9.7h1.82L8.805 6.74zm-.164.332l-1.657 2.973.883 1.32 1.668-2.64zm.496 2.953l-.828 1.34h3.09l.882-1.34zm0 0" fill="#64b5f6"/><path d="M7.094 6.738L8.75 9.7h1.82L8.805 6.74zm-.164.332l-1.657 2.973.883 1.32 1.668-2.64zm.496 2.953l-.828 1.34h3.09l.882-1.34zm0 0" fill="url(#h)"/><path d="M7.016 6.691l.039.07 1.668 2.985h1.93L8.831 6.691zm.16.094h1.601l1.711 2.867h-1.71zm-.246.188l-.043.074-1.668 2.996.937 1.406L7.88 8.723zm0 .195l.84 1.55-1.614 2.56-.828-1.239zm.468 2.809l-.011.02-.875 1.413h3.203l.945-1.433zm.055.093h3.031l-.82 1.246H6.68zm0 0" fill="#212121"/></svg>
